proprietary/assets/icons/navigatie/kompas.svg

<svg height="64" viewBox="0 0 64 64" width="64" xmlns="http://www.w3.org/2000/svg"><path d="m0 0h64v64h-64z" fill="none"/><path d="m43.0322 18.4792-14.607 9.1357c-.3448.2156-.6323.5115-.838.8622l-8.7842 14.977c-.8132 1.3866.7784 2.9337 2.1414 2.0812l14.6305-9.1503c.3448-.2156.6323-.5115.838-.8622l8.7702-14.9532c.8168-1.3927-.782-2.9465-2.1509-2.0904zm-11.0322 16.6738c-1.7414 0-3.153-1.4116-3.153-3.153s1.4116-3.153 3.153-3.153 3.153 1.4116 3.153 3.153-1.4116 3.153-3.153 3.153z"/><path d="m32 3c-15.9907 0-29 13.0093-29 29s13.0093 29 29 29 29-13.0093 29-29-13.0093-29-29-29zm1 50.1595v-5.1595h-2v5.1595c-10.9126-.51-19.6495-9.2469-20.1595-20.1595h5.1595v-2h-5.1595c.51-10.9126 9.2469-19.6495 20.1595-20.1595v5.1595h2v-5.1595c10.9126.51 19.6495 9.2469 20.1595 20.1595h-5.1595v2h5.1595c-.51 10.9126-9.2469 19.6495-20.1595 20.1595z"/></svg>

<?xml version="1.0" encoding="utf-8"?>
<!-- Generator: Adobe Illustrator 19.1.0, SVG Export Plug-In . SVG Version: 6.00 Build 0)  -->
<svg version="1.2" baseProfile="tiny" xmlns="http://www.w3.org/2000/svg" xmlns:xlink="http://www.w3.org/1999/xlink" x="0px"
	 y="0px" width="64px" height="64px" viewBox="0 0 64 64" xml:space="preserve">
<g id="_x36_4px_Box">
	<rect fill="none" width="64" height="64"/>
</g>
<g id="Icon">
	<g>
		<path d="M43.0322,18.4792l-14.607,9.1357c-0.3448,0.2156-0.6323,0.5115-0.838,0.8622l-8.7842,14.977
			c-0.8132,1.3866,0.7784,2.9337,2.1414,2.0812l14.6305-9.1503c0.3448-0.2156,0.6323-0.5115,0.838-0.8622l8.7702-14.9532
			C45.9999,19.1769,44.4011,17.6231,43.0322,18.4792z M32,35.153c-1.7414,0-3.153-1.4116-3.153-3.153s1.4116-3.153,3.153-3.153
			s3.153,1.4116,3.153,3.153S33.7414,35.153,32,35.153z"/>
		<path d="M32,3C16.0093,3,3,16.0093,3,32s13.0093,29,29,29s29-13.0093,29-29S47.9907,3,32,3z M33,53.1595V48h-2v5.1595
			C20.0874,52.6495,11.3505,43.9126,10.8405,33H16v-2h-5.1595C11.3505,20.0874,20.0874,11.3505,31,10.8405V16h2v-5.1595
			C43.9126,11.3505,52.6495,20.0874,53.1595,31H48v2h5.1595C52.6495,43.9126,43.9126,52.6495,33,53.1595z"/>
	</g>
</g>
</svg>
